src/pos-icons/ambulance.svg

<svg height="24" viewBox="0 0 24 24" width="24" xmlns="http://www.w3.org/2000/svg"><path d="m18 18.5a1.5 1.5 0 0 0 1.5-1.5 1.5 1.5 0 0 0 -1.5-1.5 1.5 1.5 0 0 0 -1.5 1.5 1.5 1.5 0 0 0 1.5 1.5m1.5-9h-2.5v2.5h4.46zm-13.5 9a1.5 1.5 0 0 0 1.5-1.5 1.5 1.5 0 0 0 -1.5-1.5 1.5 1.5 0 0 0 -1.5 1.5 1.5 1.5 0 0 0 1.5 1.5m14-10.5 3 4v5h-2a3 3 0 0 1 -3 3 3 3 0 0 1 -3-3h-6a3 3 0 0 1 -3 3 3 3 0 0 1 -3-3h-2v-11c0-1.11.89-2 2-2h14v4zm-12-2v3h-3v2h3v3h2v-3h3v-2h-3v-3z"/></svg>

<?xml version="1.0" encoding="UTF-8"?><!DOCTYPE svg PUBLIC "-//W3C//DTD SVG 1.1//EN" "http://www.w3.org/Graphics/SVG/1.1/DTD/svg11.dtd"><svg xmlns="http://www.w3.org/2000/svg" xmlns:xlink="http://www.w3.org/1999/xlink" version="1.1" id="mdi-ambulance" width="24" height="24" viewBox="0 0 24 24"><path d="M18,18.5A1.5,1.5 0 0,0 19.5,17A1.5,1.5 0 0,0 18,15.5A1.5,1.5 0 0,0 16.5,17A1.5,1.5 0 0,0 18,18.5M19.5,9.5H17V12H21.46L19.5,9.5M6,18.5A1.5,1.5 0 0,0 7.5,17A1.5,1.5 0 0,0 6,15.5A1.5,1.5 0 0,0 4.5,17A1.5,1.5 0 0,0 6,18.5M20,8L23,12V17H21A3,3 0 0,1 18,20A3,3 0 0,1 15,17H9A3,3 0 0,1 6,20A3,3 0 0,1 3,17H1V6C1,4.89 1.89,4 3,4H17V8H20M8,6V9H5V11H8V14H10V11H13V9H10V6H8Z" /></svg>
